X: 1
T: The Humours Of Trim (Rolling Waves)
R: jig
M: 6/8
L: 1/8
K: Dmaj
|:FEF DED| D2d cAG|FEF FED|A2F GFE|
FEF DED|D2d cAG|FAF GBG|A2F GFE:|
D2d cAd| cAd cAG|F2d cAG|A2F GFE|
D2d cAd|fed cAG|FAF GBG|A2F GFE:|